X:1
T:The Sexual Life of the Camel
M:6/8
L:1/8
K:D
 DE| FDF GEG| F D4 A| BGB dcB| A3- A2 A/2A/2| BGGd-c B|A-B-A F2 A|\
A-B A GFE| D3||
